X:1
T:say it (over and over again) Horrible chart by wikifonia ... why did you change so many things that I had perfect ?!?!?!
T:say it (over and over again)
T:chart by Zack Danziger www.zackdanziger.com
T:vocal part
T:Frank Loesser / Jimmy McHugh "Buck Benny Rides Again" (1940)
C:Frank Loesser
Z:All Rights Reserved
L:1/4
Q:1/4=120
M:4/4
K:C
V:1 treble nm="concert"
%%MIDI program 0
V:1
"^A""Cmaj7" G2"A7" G2 |"Dm7" (3A F D"G7" (3B G E |"Cmaj7" C2"A7" z2 |"Dm7" (3A F D"E7" (3B G E | %4
w: Say it|ov- er and ov- er a-|gain,|ov- er and ov- er a-|
"Am" C2"D7" z2 |"Dm7" (3G E G (3E"G7" C D | E4"Cmaj7""A7" |"Dm7" x2"G7" x2 |"^A""Cmaj7" G2"A7" G2 | %9
w: gain,|ne- ver stop say- ing you're|mine.||Say it,|
"Dm7" (3A F D (3B G E |"Cmaj7" C2"A7" z2 |"Dm7" (3A F D (3B G E |"Am" C2"D7" z2 | %13
w: ev- er and ev- er so|sweet,|ev- er and ev- er so|sweet|
"Dm7" (3G E G"G7" (3E C D | C4"Cmaj7" |"Bm7b5" x2"E7" x2 |"^B" E/"A"^F/^G/A/ B/"Adim7" B A/ | %17
w: just like an old val- en-|tine.||When you say I love you, the|
 B/"Bm7" B A/ B/"E7" B B/ | B/"C#m7" B A/ B/"Cdim7" B A/ | E4"Bm7""E7" | %20
w: same old I love you, they|whis- per in stor- ies and|plays,|
 E/"A"^F/^G/A/ B/"Adim7" B A/ | B/"Bm7" B A/ B/"E7" B B/ | B/"C#m7" B A/ B/"Cdim7"B/-B/A/ | %23
w: You can change I love you, the|same old I love you, to|oh such a heav- en- * ly|
 E2"Dm7" z"G7" E |"^A""Cmaj7" G2"A7" G2 |"Dm7" (3A F D (3B G E |"Cmaj7" C2"A7" z2 | %27
w: phrase. So|say it,|soft- ly and gent- ly and|then,|
"Dm7" (3A F D (3B G E |"Am" C2"D7" z2 |"Dm7" (3G E G (3E"G" C D | C4"Cmaj7""A7" |"Dm7" x2"G7" x2 |] %32
w: ov- er and ov- er a-|gain,|ne- ver stop say- ing you're|mine.||

